X: 5
T: Contentment Is Wealth
R: jig
M: 6/8
L: 1/8
K: Edor
S: Andrea Beaton
F| GFG Eed | BAB E2 G | FEF DdB | AFD Def |
gfe edB | BAB dcd | B/c/dB AGF | GEE E2 :|
f | gbe gbe | gfg bag | fdd Add | fdf afd |
gfe edB | BAB dcd | B/c/dB AGF | GEE E2 :|


Tune 1662	Setting 29535

